epam-assets/icon-sources/18/bell-off.svg

<svg width="18" height="18" viewBox="0 0 18 18" fill="none" xmlns="http://www.w3.org/2000/svg">
<g id="18/bell-off">
<path id="icon" d="M13.4998 11.3625L6.1498 4.0125C6.3998 3.825 6.66855 3.653 6.95605 3.4965C7.24355 3.3405 7.54981 3.225 7.8748 3.15V2.625C7.8748 2.3125 7.9843 2.047 8.2033 1.8285C8.4218 1.6095 8.6873 1.5 8.9998 1.5C9.3123 1.5 9.57781 1.6095 9.7963 1.8285C10.0153 2.047 10.1248 2.3125 10.1248 2.625V3.15C11.0998 3.4 11.9061 3.92175 12.5436 4.71525C13.1811 5.50925 13.4998 6.4375 13.4998 7.5V11.3625ZM2.9998 14.25V12.75H4.4998V7.5C4.4998 7.3625 4.50605 7.225 4.51855 7.0875C4.53105 6.95 4.5498 6.8125 4.5748 6.675L1.0498 3.15L2.0998 2.1L15.8998 15.9L14.8498 16.95L12.1123 14.25H2.9998ZM8.9998 16.5C8.58731 16.5 8.23431 16.3533 7.94081 16.0597C7.64681 15.7657 7.4998 15.4125 7.4998 15H10.4998C10.4998 15.4125 10.3531 15.7657 10.0596 16.0597C9.76556 16.3533 9.4123 16.5 8.9998 16.5Z" fill="#6C6F80"/>
</g>
</svg>

<svg xmlns="http://www.w3.org/2000/svg" width="18" height="18" fill="none" viewBox="0 0 18 18">
  <path fill="#6C6F80" d="m13.5 11.363-7.35-7.35c.25-.188.519-.36.806-.516.288-.156.594-.272.919-.347v-.525c0-.313.11-.578.328-.796A1.08 1.08 0 0 1 9 1.5c.312 0 .578.11.796.329.22.218.329.484.329.796v.525a4.45 4.45 0 0 1 2.419 1.565c.637.794.956 1.723.956 2.785v3.863ZM3 14.25v-1.5h1.5V7.5a4.554 4.554 0 0 1 .075-.825L1.05 3.15 2.1 2.1l13.8 13.8-1.05 1.05-2.738-2.7H3Zm6 2.25c-.413 0-.766-.147-1.06-.44A1.445 1.445 0 0 1 7.5 15h3c0 .412-.147.766-.44 1.06A1.45 1.45 0 0 1 9 16.5Z"/>
</svg>
